_includes/icons/ios-arrow-pointing-upward.svg

<svg fill="#666" height="50" viewBox="0 0 50 50" width="50" xmlns="http://www.w3.org/2000/svg"><path d="m25 7.65625-.71875.6875-10.875 10.90625c-.296875.242188-.433594.628906-.347656 1.003906.085937.371094.378906.664063.75.75.375.085938.761719-.050781 1.003906-.347656l9.1875-9.1875v29.53125c-.003906.359375.183594.695313.496094.878906.3125.179688.695312.179688 1.007812 0 .3125-.183593.5-.519531.496094-.878906v-29.53125l9.1875 9.1875c.242188.296875.628906.433594 1.003906.347656.371094-.085937.664063-.378906.75-.75.085938-.375-.050781-.761718-.347656-1.003906l-10.875-10.90625z"/></svg>

<svg xmlns="http://www.w3.org/2000/svg" viewBox="0 0 50 50" width="50" height="50" fill="#666"><path d="M 25 7.65625 L 24.28125 8.34375 L 13.40625 19.25 C 13.109375 19.492188 12.972656 19.878906 13.058594 20.253906 C 13.144531 20.625 13.4375 20.917969 13.808594 21.003906 C 14.183594 21.089844 14.570313 20.953125 14.8125 20.65625 L 24 11.46875 L 24 41 C 23.996094 41.359375 24.183594 41.695313 24.496094 41.878906 C 24.808594 42.058594 25.191406 42.058594 25.503906 41.878906 C 25.816406 41.695313 26.003906 41.359375 26 41 L 26 11.46875 L 35.1875 20.65625 C 35.429688 20.953125 35.816406 21.089844 36.191406 21.003906 C 36.5625 20.917969 36.855469 20.625 36.941406 20.253906 C 37.027344 19.878906 36.890625 19.492188 36.59375 19.25 L 25.71875 8.34375 Z"/></svg>
